Catalina-light/actions/22/document-share.svg

<svg xmlns="http://www.w3.org/2000/svg" viewBox="0 0 22 22">
  <defs id="defs3051">
    <style type="text/css" id="current-color-scheme">
      .ColorScheme-Text {
        color:#4d4d4d
      }
      </style>
  </defs>
    <path
       style="fill:currentColor;fill-opacity:1;stroke:none"
       class="ColorScheme-Text"
       d="m 16.0576,13.16905 c -0.934254,0 -1.758359,0.4413 -2.296728,1.1171 L 8.7671091,11.75408 c 0.065417,-0.24177 0.1124206,-0.49155 0.1124206,-0.75445 0,-0.28618 -0.055827,-0.55564 -0.133661,-0.8178 L 13.717574,7.66142 C 14.253025,8.3678 15.098401,8.8295 16.058368,8.8295 17.684529,8.8295 19,7.52524 19,5.91438 19,4.305 17.684529,3 16.058368,3 c -1.622467,0 -2.939392,1.305 -2.939392,2.91438 0,0.26363 0.04704,0.51414 0.113117,0.75664 L 8.2398043,9.20308 C 7.7006981,8.52657 6.8751294,8.0838 5.9394115,8.0838 4.3147337,8.0838 3,9.38951 3,10.99963 c 0,1.61012 1.3147337,2.91512 2.9394115,2.91512 0.9614305,0 1.8060893,-0.46316 2.3437317,-1.17026 l 4.9695248,2.52041 c -0.07784,0.26143 -0.134419,0.53306 -0.134419,0.81998 0,1.61013 1.316935,2.91512 2.939412,2.91512 1.626141,0 2.941602,-1.30499 2.941602,-2.91512 0,-1.61157 -1.315461,-2.91583 -2.941602,-2.91583 l 0,0 z"
        />
</svg>

<svg viewBox="0 0 22 22" xmlns="http://www.w3.org/2000/svg">
<defs>
<style id="current-color-scheme" type="text/css">.ColorScheme-Text {
        color:#363636
      }</style>
</defs>
<path class="ColorScheme-Text" d="m16.058 13.169c-0.93425 0-1.7584 0.4413-2.2967 1.1171l-4.9938-2.5321c0.065417-0.24177 0.11242-0.49155 0.11242-0.75445 0-0.28618-0.055827-0.55564-0.13366-0.8178l4.9717-2.5204c0.53545 0.70638 1.3808 1.1681 2.3408 1.1681 1.6262 0 2.9416-1.3043 2.9416-2.9151 0-1.6094-1.3155-2.9144-2.9416-2.9144-1.6225 0-2.9394 1.305-2.9394 2.9144 0 0.26363 0.04704 0.51414 0.11312 0.75664l-4.9923 2.5321c-0.53911-0.67651-1.3647-1.1193-2.3004-1.1193-1.6247 0-2.9394 1.3057-2.9394 2.9158s1.3147 2.9151 2.9394 2.9151c0.96143 0 1.8061-0.46316 2.3437-1.1703l4.9695 2.5204c-0.07784 0.26143-0.13442 0.53306-0.13442 0.81998 0 1.6101 1.3169 2.9151 2.9394 2.9151 1.6261 0 2.9416-1.305 2.9416-2.9151 0-1.6116-1.3155-2.9158-2.9416-2.9158z" fill="#363636"/>
</svg>
